!!!COM: Scarlatti, Domenico
!!!CDT: 1685-1757
!!!OTL: Sonata in C major, L.503, K.513
!!!SCT: K. 513
!!!SCT: L. 503
!!!OMD: Pastorale ([quarter-dot]=76)
**kern	**kern	**dynam
*staff2	*staff1	*staff1/2
*Icemba	*Icemba	*
*I"L.503 (K.513)	*I"L.503 (K.513)	*
*>[A,A,B,B]	*>[A,A,B,B]	*>[A,A,B,B]
*>norep[A,B]	*>norep[A,B]	*>norep[A,B]
*>A	*>A	*>A
*clefF4	*clefG2	*
*k[]	*k[]	*
*M12/8	*M12/8	*
*MM114	*MM114	*
=1-	=1-	=1-
!	!	!LO:DY:rj
2.r	(8.eeL	p
.	16ffk	.
.	8eeJ	.
.	4gg)	.
.	8gg	.
(8.eL	4.gg	.
16fk	.	.
8eJ	.	.
4g)	4r	.
8g	(8gg	.
=2	=2	=2
4r	4b	.
(8g	8cc	<
4B	4dd	.
8c	8ee	.
*^	*	*
4f	(4.F	4aa	[ mf
8e	.	8gg	.
8.dL	4.G	8.ffL	.
16ck	.	16eek	.
8BJ	.	8ddJ	.
!!LO:LB:g=z
=3	=3	=3	=3
4c	4c))	8.ccMML	.
.	.	16bk	.
*v	*v	*	*
(8C	8ccJ)	.
4.CC)	4r	.
.	8r	.
!	!	!LO:DY:rj:b
2.r	(8.ddL	p
.	16ee-k	.
.	8ddJ	.
.	4ff)	.
.	8ff	.
=4	=4	=4
(8.dL	4.ff	.
16e-k	.	.
8dJ	.	.
4f)	4r	.
8f	(8ff	.
4r	4a\	<
(8f	8b-	.
4A	4cc	.
8B-	8dd	[[
!!LO:LB:g=z
=5	=5	=5
*^	*	*
4e-	(4.E-	4gg	mf
8d	.	8ff	.
8.cL	4.F	8.ee-L	.
16B-k	.	16ddk	.
8AJ	.	8ccJ	.
4B-	4B-))	8.b-MML<	.
.	.	16ak	.
(8BB-	8ryy	8b-J)	.
4BBB-)	4ryy	4r	.
*clefG2	*clefG2	*	*
(>8a-	8ryy	8cc (8ff	mf
=6	=6	=6	=6
4g	4.c	4b- 4een	.
8a-	.	8cc 8ff	.
4g	4.c	4b- 4ee	.
8a-	.	8cc 8ff	.
*	*	*^	*
4.g)	4.c	8eeL	4.b-	.
.	.	16ggL	.	.
.	.	16ffJ	.	.
.	.	8eeJ)	.	.
*	*	*v	*v	*
4r	4.ryy	4r	.
(>8a-	.	8cc (8ff	p
!!LO:LB:g=z
=7	=7	=7	=7
4g	4.c	8eeL	.
.	.	8b-	.
8a-	.	8ffJ	.
4g	4.c	8eeL	.
.	.	8b-	.
8a-	.	8ffJ	.
[2.g	([4.c	8eeL	.
.	.	16ggL	.
.	.	16ffJ	.
.	.	8eeJ)	.
.	4c]	([4.gg	mf
.	8B-	.	.
*v	*v	*	*
=8	=8	=8
4An 4g]	(<4cc# 4gg]	.
8d 8f))	8dd 8ff))	.
*	*^	*
*clefF4	*	*	*
(4G	(4ee	(8b-L	.
.	.	8a	.
8B-	8dd	8gJ)	.
*	*v	*v	*
4A)	8.cc#mmL	.
.	16bnk	.
(8AA	8aJ)	.
4AAA)	4r	.
*clefG2	*	*
(8f 8a	8dd (8aa	mf
!!LO:LB:g=z
=9	=9	=9
4e 4g	4cc# 4gg	.
8f 8a	8dd 8aa	.
4e 4g	4cc# 4gg	.
8f 8a	8dd 8aa	.
*	*^	*
4.e 4.g)	8ggL	4.cc#	.
.	16bb-L	.	.
.	16aaJ	.	.
.	8ggJ)	.	.
*	*v	*v	*
4r	4r	.
(8f 8a	8dd (8aa	p
=10	=10	=10
4e 4g	8ggL	.
.	8cc#	.
8f 8a	8aaJ	.
4e 4g	8ggL	.
.	8cc#	.
8f 8a	8aaJ	.
[4.e) [4.b	8gg#L	.
.	16bbnL	.
.	16aaJ	.
.	8gg#J)	.
4e] 4b]	4ff	.
(8g# 8b	([8ddd	mf
!!LO:LB:g=z
=11	=11	=11
*	*^	*
4a	8dddL]	4ee	.
.	8ccc)	.	.
8d	([8bbJ	(8dd	.
4e	8bbL]	4ccn)	.
.	8aa)	.	.
*clefF4	*	*	*
8E	(8gg#J	8b	.
*^	*	*	*
*	*	*v	*v	*
4rg	([4.A)	4ccc	.
[8a	.	8bb	.
4.a_	4A]	4aa	.
.	8B	8ggn	.
=12	=12	=12	=12
8a]L	4.c@	8ff#L	.
8f#	.	8dd#	.
[8gJ	.	[8eeJ	.
4g]	4.B@	4ee]	.
8f#	.	8dd#)	.
*	*^	*^	*
[2.e)	4r	8g@	(4bb	2.b	.
.	.	4ryy	.	.	.
.	([8E	.	8aa	.	.
.	4E]	4.ryy	4gg	.	.
.	8F#	.	8ff#	.	.
*	*	*	*v	*v	*
*	*v	*v	*	*
!!LO:LB:g=z
=13	=13	=13	=13
4e]	4.G)	8eeL	.
.	.	8cc#	.
(8g	.	[8ddnJ	.
4f#	4.A	4dd]	.
8e)	.	8cc#	.
*v	*v	*	*
(4D/	4.f#@\ 4.dd\)	.
8DD)	.	.
!	!LO:TUP:r=8	!
4r	(24aLL	p
.	24b	.
.	24aJ	.
.	24gL	.
.	24f#	.
.	24eJ	.
8r	8d'J)	.
=14	=14	=14
4.DD	(24bLL	<
.	24ccn	.
.	24bJ	.
.	32aLL	.
.	32g	.
.	32f	.
.	32e#JJ	.
.	8d'J)	.
4.DD'	(32ccLLL	.
.	32dd	.
.	32cc	.
.	32bJJ	.
.	32aLL	.
.	32g	.
.	32f	.
.	32e#JJ	.
.	8d'J)	.
4.DD	(4e# 4cc#	f >
.	8f) 8dd	.
*	*Xtuplet	*
4.DD	(24aLL	] p
.	24b	.
.	24aJ	.
.	24gL	.
.	24f	.
.	24e#J	.
.	8d'J)	.
!!LO:LB:g=z
=15	=15	=15
4.DD	(24bLL	<
.	24ccn	.
.	24bJ	.
.	32aLL	.
.	32g	.
.	32f#	.
.	32eJJ	.
.	8d'J)	.
4.DD	(32ccLLL	.
.	32dd	.
.	32cc	.
.	32bJJ	.
.	32aLL	.
.	32g	.
.	32f#	.
.	32eJJ	.
.	8d'J)	.
[4.DD	(4e 4cc#	f >
.	8f#) 8dd	.
4DD]	4.ccn 4.aa	] f
(8F#	.	.
=16	=16	=16
*	*^	*
4G	(8ggL	4b	mf
.	8dd	.	.
8C	8ccJ	8a	.
4D	4g 4b	4.ryy	.
8DD)	8f# 8a)	.	.
4r	4.ryy	(8.ccLM>	f
.	.	16bk	.
8r	.	8ccJ	.
4r	4.aa	(4aa)	.
(8F#	.	8cc	p
!!LO:LB:g=z
=17	=17	=17	=17
4G	(8ggL	4b)	.
.	8dd	.	.
8C	8ccJ	8a	.
4D/	4g 4b	4.ryy	.
8DD)	8f# 8a)	.	.
=..	=..	=..	=..
!!!OMD: Molto allegro ([quarter-dot]=116)
*MM172	*MM172	*MM172	*MM172
4.GG	(4gg	4.g	mf
.	8dd	.	.
4.GG 4.G	4b)	4r	.
.	(8dd	(8b	p
=18	=18	=18	=18
4.GG 4.C 4.G	8.eeL	4.cc	<
.	16ddk	.	.
.	8eeJ	.	.
4.GG 4.D	8.ff#L	4.a	.
.	16eek	.	.
.	8ff#J	.	.
4.GG 4.D 4.G	4gg	4.b)	mf >
.	8dd	.	.
4.GG 4.D 4.G	4b)	4r	]
.	(8dd	(8d	p
!!LO:LB:g=z
=19	=19	=19	=19
4.GG 4.C 4.G	4.cc	8.eL	<
.	.	16dk	.
.	.	8eJ	.
4.GG 4.D 4.G	4.a	8.f#L	.
.	.	16ek	.
.	.	8f#J	.
[4.GG [4.D [4.G	4.b)	4g	.
.	.	8d	[
4GG] 4D] 4G]	4.ryy	4.g) 4.b 4.dd	mf
(>8D/	.	.	.
*	*v	*v	*
=20	=20	=20
8.GG 8.EL	(<4.g\ 4.cc\	.
16Dk	.	.
8EJ	.	.
8.F#L>	4.a) 4.cc	.
16Ek	.	.
8F#J	.	.
4.GG 4.G)	8.g (8.bL	.
.	16a 16cck	.
.	8b 8ddJ	.
4.GG 4.G	4cc 4ee	.
.	8b 8dd	.
!!LO:LB:g=z
=21	=21	=21
4.GG/ 4.A/	4a/ 4cc/	.
.	8g 8b	.
4.GG/ 4.A/	8.f# 8.aL	.
.	16g 16bk	.
.	8a 8ccJ	.
4.GG 4.G	8.g 8.bL>	<
.	16a 16cck	.
.	8b 8ddJ	.
4.GG 4.G	4cc 4ee	[
.	8b 8dd	.
=22	=22	=22
*	*^	*
(4.CC 4.C	4e 4cc	2.ryy	.
.	8d 8b	.	.
4.DD) 4.D	8.c 8.aL	.	.
.	16B 16gk	.	.
.	8A 8f#J	.	.
4.GGG	4g	4.B	.
.	8d	.	.
4r	4g)	4.ryy	.
8r	8b (8dd	.	p
*	*v	*v	*
!!LO:LB:g=z
=23	=23	=23
2.r	4b 4dd	.
.	8a 8cc	.
.	4g 4b	.
.	8f# 8a	.
(4G	[4.g [4.b)	.
8D	.	.
4.GG)	4g] 4b]	.
.	8a/ (8cc/	.
=24	=24	=24
(4.G	4b 4dd	.
.	8a 8cc	.
4.GG)	8.g 8.bL	.
.	16f# 16ak	.
.	8e 8gJ	.
(4D/	[4.f# [4.a)	.
8AA	.	.
4.DD)	4f#] 4a]	.
.	(8dd	.
=25	=25	=25
*	*^	*
(4.D	4a	4.f#	.
.	8dd	.	.
4.DD	4f#	4.f#	.
.	8dd	.	.
4.D	4f# 4a)	2.ryy	.
.	.	.	<
.	8g (8b	.	.
4.DD)	4a 4cc	.	.
.	8b 8dd	.	[
*	*v	*v	*
!!LO:LB:g=z
=26	=26	=26
(4.CC 4.C	4cc 4ee	mf
.	8b 8dd	.
4.DD) 4.D	8.a 8.ccL	.
.	16g 16bk	.
.	8f# 8aJ	.
(4G	[4.g)	.
8D	.	.
4.GG)	4g]	.
.	(8dd	p
=27	=27	=27
*	*^	*
(4.D	4a	4.f#	.
.	8dd	.	.
4.DD	4a	4.f#	.
.	8dd	.	.
4.D	4f# 4a)	2.ryy	.
.	8g (8b	.	.
4.DD)	4a 4cc	.	.
.	8b 8dd	.	.
*	*v	*v	*
!!LO:LB:g=z
=28	=28	=28
(4.CC 4.C	4cc 4ee	.
.	8b 8dd	.
4.DD) 4.D	8.a 8.ccL	.
.	16g 16bk	.
.	8f# 8aJ	.
4.GG\ 4.G\	4g)	.
.	8cc (8aa	mf
4.GG\ 4.G\	4b 4gg	.
.	8a 8ff#	.
=29	=29	=29
*	*^	*
4.GG\ 4.G\	4g/ 4ee/	4.ryy	.
.	8f# 8dd	.	.
4.GG\ 4.G\	8ccL	(4e	.
.	8b	.	.
.	8aJ	8f#	.
4.GG\ 4.G\	4b)	4g)	.
.	8ryy	8cc (>8ee	p
*	*v	*v	*
4.GG\ 4.G\	4b\ 4dd\	.
.	8a 8cc	.
!!LO:LB:g=z
=30	=30	=30
*^	*	*
2.ryy	4.GG\ 4.G\	4g 4b	<
.	.	8f# 8a	.
.	4.GG\ 4.G\	8.e 8.gL	.
.	.	16d 16f#k	.
.	.	8c 8eJ	.
4.ryy	4.GG\ 4.G\	4B 4d	mf
.	.	8A 8c	.
(4G	4.GG	4.B 4.d)	.
8F#	.	.	.
=31	=31	=31	=31
*	*	*^	*
4E	4.GG	2.ryy	4.c (>4.e	.
8D	.	.	.	.
8.CL	4.GG	.	4.d 4.f#	.
16BBk	.	.	.	.
8AAJ	.	.	.	.
4.GG	4.GG)	4.ryy	4B 4g)	.
.	.	.	8c (8a	.
4.ryy	4.GG\ 4.G\	8.bL	4.d	.
.	.	16cck	.	.
.	.	8ddJ	.	.
*v	*v	*	*	*
!!LO:LB:g=z
=32	=32	=32	=32
(4.CC 4.C	4cc	8.eL	.
.	.	16f#k	.
.	8b)	8gJ	.
4.DD) 4.D	4g (4b	4.ryy	.
.	8f# 8a	.	.
(4GG	4.g)	2.ryy	mf
8D	.	.	.
4G	4r	.	.
8D	(8b	.	.
*	*v	*v	*
=33	=33	=33
4GG	4cc#	.
8D	8dd)	.
4G	4r	.
8D	(8ee	.
4GG	4ff#	.
8D	8gg)	.
4G	4r	.
8D	(8b	.
!!LO:LB:g=z
=34	=34	=34
4GG	4cc#	>
8D	8dd)	.
4G	4r	.
8D	(8ee	.
4.GG)	4ff#	.
.	8gg)	.
4.GGG	4r	.
.	(8ee	p
=35	=35	=35
4r	4ff#	.
8r	8gg)	.
4.GGG	4r	.
.	(8ee	pp
4r	4ff#	.
8r	8gg)	.
4.GGG	4r	.
.	8r	.
!!LO:LB:g=z
=36:|!|:	=36:|!|:	=36:|!|:
*>B	*>B	*>B
!!!OMD: Presto ([quarter-dot]=88)
*M3/8	*M3/8	*
*MM132	*MM132	*MM132
*^	*	*
(4G	4.G	(16ggLL	f
.	.	16dd	.
.	.	16b	.
.	.	16g	.
8f	.	16b	.
.	.	16gJJ	.
=37	=37	=37	=37
8e'L)	4.G	16ccLL	.
.	.	16g	.
8d'	.	16dd	.
.	.	16g	.
8c'J	.	16ee	.
.	.	16gJJ	.
=38	=38	=38	=38
(4G	4.G	16ggLL	.
.	.	16dd	.
.	.	16b	.
.	.	16g	.
8f	.	16b	.
.	.	16gJJ	.
=39	=39	=39	=39
8e'L)	4.G	16ccLL	.
.	.	16g	.
8d'	.	16dd	.
.	.	16g	.
8c'J	.	16ee	.
.	.	16gJJ	.
*v	*v	*	*
!!LO:LB:g=z
=40	=40	=40
*	*^	*
(16gLL	(4.gg)	(4gg	.
16d	.	.	.
16B	.	.	.
16G	.	.	.
16B	.	8ff	.
16GJJ	.	.	.
=41	=41	=41	=41
16cLL	4.gg	8ee'L))	.
16G	.	.	.
16d	.	8dd'	.
16G	.	.	.
16e	.	8cc'J	.
16GJJ	.	.	.
=42	=42	=42	=42
16gLL	[4.gg	(4gg	.
16d	.	.	.
16B	.	.	.
16G	.	.	.
16B	.	8ff	.
16GJJ	.	.	.
=43	=43	=43	=43
16cLL	4.gg]	8ee'L)	.
16G	.	.	.
16d	.	8dd'	.
16G	.	.	.
16e	.	8cc'J	.
16GJJ)	.	.	.
*	*v	*v	*
!!LO:LB:g=z
=44	=44	=44
*^	*	*
(4G	[4.G	(16ggLL	.
.	.	16dd	.
.	.	16b	.
.	.	16g	.
8f	.	16a	.
.	.	16aaJJ	.
=45	=45	=45	=45
4e	4.G]	16ggLL	.
.	.	16ee	.
.	.	16cc	.
.	.	16g	.
8d	.	16f	.
.	.	16ffJJ	.
*v	*v	*	*
=46	=46	=46
(16cLL)	4eemm	.
16G	.	.
16E	.	.
16C	.	.
16BB	8dd	.
16BJJ	.	.
=47	=47	=47
16AALL>	4ccMM	.
16A	.	.
16E	.	.
16C	.	.
16GG	8b	.
16GJJ	.	.
!!LO:LB:g=z
=48	=48	=48
16FFLL	4aMM	.
16F	.	.
16C	.	.
16AA	.	.
16EE	8g	.
16EJJ	.	.
=49	=49	=49
16DDLL	4fMM	.
16D	.	.
16BB	.	.
16GG	.	.
16CC	8e	.
16CJJ)	.	.
=50	=50	=50
4.GGG	(16dLL)	f
.	16f	.
.	16b	.
.	16dd	.
.	16ff	.
.	16ddJJ)	.
=51	=51	=51
4.GGG	(16eLL	.
.	16g	.
.	16cc	.
.	16ee	.
.	16gg	.
.	16eeJJ)	.
=52	=52	=52
4.GGG	(16dLL	p
.	16f	.
.	16b	.
.	16dd	.
.	16ff	.
.	16ddJJ)	.
!!LO:LB:g=z
=53	=53	=53
4.GGG	(16eLL	.
.	16g	.
.	16cc	.
.	16ee	.
.	16gg	.
.	16eeJJ	.
=54	=54	=54
(16GGLL	4.dd)	<
16BB	.	.
16D	.	.
16G	.	.
16B	.	.
16dJJ)	.	.
=55	=55	=55
(16ALL	8cc' 8ccc'L	f
16f	.	.
16G	8cc' 8ccc'	.
16e	.	.
16F	8cc' 8ccc'J	.
16dJJ	.	.
=56	=56	=56
4.E 4.c)	16cc' (16ccc'LL	.
.	16gg	.
.	16ee	.
.	16cc	.
.	16ee	.
.	16ggJJ	.
!!LO:LB:g=z
=57	=57	=57
(16ALL	8cc' 8ccc'L)	.
16f	.	.
16G	8cc' 8ccc'	.
16e	.	.
16F	8cc' 8ccc'J	.
16dJJ	.	.
=58	=58	=58
4.E 4.c)	(16cc 16 cccLL	.
.	16gg	.
.	16ee	.
.	16cc	.
.	16ee	.
.	16ggJJ	.
=59	=59	=59
(16FLL	16aaLL	.
16d	16ff	.
16E	16gg	.
16c	16ee	.
16D	16ff	.
16BJJ	16ddJJ	.
=60	=60	=60
16ELL	16eeLL	.
16c	16gg	.
16D	16b	.
16B	16dd	.
16C	16cc	.
16cJJ	16eeJJ	.
!!LO:LB:g=z
=61	=61	=61
8F'L)	16ddLL	.
.	16ff	.
8G'	16ee	.
.	16dd	.
8GG'J	16cc	.
.	16bJJ	.
=62	=62	=62
4.CC^	16ccLL	>
.	16dd	.
.	16ee	.
.	16ff	.
.	16gg	.
.	16ccJJ)	]
=63	=63	=63
(16ALL	8cc' 8ccc'L	p
16f	.	.
16G	8cc' 8ccc'	.
16e	.	.
16F	8cc' 8ccc'J	.
16dJJ	.	.
=64	=64	=64
4.E 4.c)	(16cccLL	.
.	16gg	.
.	16ee	.
.	16cc	.
.	16ee	.
.	16ggJJ	.
!!LO:LB:g=z
=65	=65	=65
(16ALL	8cc' 8ccc'L)	p
16f	.	.
16G	8cc' 8ccc'	.
16e	.	.
16F	8cc' 8ccc'J	.
16dJJ	.	.
=66	=66	=66
4.E 4.c)	(16cccLL	.
.	16gg	.
.	16ee	.
.	16cc	.
.	16ee	.
.	16ggJJ	.
=67	=67	=67
(16FLL	16aaLL	<
16d	16ff	.
16E	16gg	.
16c	16ee	.
16D	16ff	.
16BJJ	16ddJJ	.
=68	=68	=68
16ELL	16eeLL	.
16c	16gg	.
16D	16b	.
16B	16dd	.
16C	16cc	.
16cJJ	16eeJJ	.
!!LO:LB:g=z
=69	=69	=69
8F'L)	16ddLL	.
.	16ff	.
8G'	16ee	.
.	16dd	.
8GG'J	16cc	.
.	16bJJ	.
=70	=70	=70
*^	*	*
4.c	(8CL	16ccLL	f
.	.	16dd	.
.	8D	16ee	.
.	.	16ff	.
.	8EJ)	16gg	.
.	.	16aaJJ)	.
=71	=71	=71	=71
4.c	(8FL	(>16g#LL>	.
.	.	16a	.
.	8E	16b	.
.	.	16cc	.
.	8DJ)	16dd	.
.	.	16eeJJ	.
=72	=72	=72	=72
4.c	(8EL	16f#LL	.
.	.	16gn	.
.	8D	16a	.
.	.	16b	.
.	8CJ)	16cc	.
.	.	16ddJJ	.
*v	*v	*	*
!!LO:LB:g=z
=73	=73	=73
8F'L	16fnLL	.
.	16dd	.
8G'	16e	.
.	16cc	.
8GG'J	16d	.
.	16bJJ)	.
=74	=74	=74
*^	*	*
4.c	(8CL	(16ccLL	p
.	.	16dd	.
.	8D	16ee	.
.	.	16ff	.
.	8EJ)	16gg	.
.	.	16aaJJ)	.
=75	=75	=75	=75
4.c	(8FL	(16g#LL>	.
.	.	16a	.
.	8E	16b	.
.	.	16cc	.
.	8DJ)	16dd	.
.	.	16eeJJ	.
=76	=76	=76	=76
4.c	(8EL	16f#LL	.
.	.	16gn	.
.	8D	16a	.
.	.	16b	.
.	8CJ)	16cc	.
.	.	16ddJJ	.
*v	*v	*	*
!!LO:LB:g=z
=77	=77	=77
8F'L	16fnLL	.
.	16dd	.
8G'	16e	.
.	16cc	.
8GG'J	16d	.
.	16bJJ	.
=78	=78	=78
8c'L	16eLL	<
.	16cc	.
8F'	16f	.
.	16dd	.
8G'J	16d	.
.	16bJJ	.
=79	=79	=79
8c'L	16eLL	.
.	16cc	.
8F'	16f	.
.	16dd	.
8G'J	16d	.
.	16bJJ	.
=80	=80	=80
8C'L	16gLL	.
.	16ee	.
8FF'	16f	.
.	16dd	.
8GG'J	16d	.
.	16bJJ	.
=81	=81	=81
4.CC^	4.cc^)	f
==:|!	==:|!	==:|!
*-	*-	*-
!!!RDF**kern: > = above
!!!RDF**kern: < = below
!!!RDF**dynam: > = dim.
!!!RDF**kern: @ = marked note color="silver", optional note
!!!verovio: beamFrenchStyle 1
!!!URL-vhv: https://verovio.humdrum.org/?file=scarlatti/sonatas/L503K513.krn
!!!URL-pdf: https://github.com/craigsapp/scarlatti-keyboard-sonatas/blob/master/reference-edition/L503K513.pdf
!!!PTL: Domenico Scarlatti: Opere complete per clavicembalo
!!!PED: Longo, Alessandro
!!!PPR: Ricordi
!!!PPP: Milan
!!!PDT: 1906-1913
!!!YEC: 2021 Craig Stuart Sapp
!!!YEM: Licence: (CC BY-NC-SA 4.0) https://creativecommons.org/licenses/by-nc-sa/4.0
!!!ENC: Craig Stuart Sapp
!!!END: 2006/08/12
!!!EED: Craig Stuart Sapp
!!!EEV: 2021/02/10
